;FLAVOR:Marlin
;TIME:1534
;Filament used: 1.94913m
;Layer height: 0.28
;MINX:54.25
;MINY:76.75
;MINZ:0.28
;MAXX:145.75
;MAXY:133.25
;MAXZ:3.08
;Generated with Cura_SteamEngine 5.2.1
M140 S60
M105
M190 S60
M104 S200
M105
M109 S200
M82 ;absolute extrusion mode
M220 S100 ;reset feedrate
M221 S100 ;reset flowrate
G90 ;use absolute coordinates
M82 ;absolute extrusion mode
G28 ;home
G1 Z2 F1500 ;raise z
G92 E0 ;reset extruder

G1 X75 Y5 F5000 ;start position
G1 Z0.28 F1500 ;lower z
G1 E4 F500 ;prime the filament
G1 X180 E10 F500 ;1st line
G1 Y5.4 F5000
G1 X75 E20 F500 ;2nd line
G1 Z2 F1500 ;raise z
G92 E0 ;reset extruder
G92 E0
G92 E0
G1 F1500 E-6.5
;LAYER_COUNT:11
;LAYER:0
M107
G0 F9000 X58.885 Y78.916 Z0.28
;TYPE:SKIRT
G1 F1500 E0
G1 F1800 X59.674 Y78.39 E0.05519
G1 X60.505 Y77.933 E0.11039
G1 X61.372 Y77.547 E0.16563
G1 X62.268 Y77.236 E0.22084
G1 X63.187 Y77.001 E0.27605
G1 X64.122 Y76.845 E0.33122
G1 X65.194 Y76.763 E0.3938
G1 X65.83 Y76.75 E0.43083
G1 X133.954 Y76.751 E4.396
G1 X134.652 Y76.761 E4.43663
G1 X135.599 Y76.815 E4.49184
G1 X136.538 Y76.948 E4.54704
G1 X137.463 Y77.16 E4.60228
G1 X138.366 Y77.448 E4.65745
G1 X139.242 Y77.812 E4.71266
G1 X140.084 Y78.249 E4.76788
G1 X140.886 Y78.755 E4.82307
G1 X141.643 Y79.326 E4.87826
G1 X142.349 Y79.96 E4.93349
G1 X143 Y80.65 E4.98871
G1 X143.589 Y81.393 E5.0439
G1 X144.114 Y82.183 E5.0991
G1 X144.571 Y83.014 E5.15431
G1 X144.956 Y83.881 E5.20952
G1 X145.267 Y84.777 E5.26473
G1 X145.501 Y85.696 E5.31992
G1 X145.656 Y86.632 E5.37514
G1 X145.737 Y87.694 E5.43714
G1 X145.75 Y88.33 E5.47416
G1 X145.749 Y121.403 E7.39919
G1 X145.74 Y122.13 E7.4415
G1 X145.688 Y123.077 E7.49671
G1 X145.557 Y124.017 E7.55195
G1 X145.347 Y124.942 E7.60716
G1 X145.06 Y125.846 E7.66237
G1 X144.698 Y126.722 E7.71753
G1 X144.263 Y127.565 E7.77275
G1 X143.759 Y128.368 E7.82793
G1 X143.189 Y129.126 E7.88313
G1 X142.557 Y129.834 E7.93837
G1 X141.867 Y130.485 E7.99359
G1 X141.126 Y131.076 E8.04876
G1 X140.337 Y131.603 E8.10398
G1 X139.506 Y132.061 E8.15921
G1 X138.64 Y132.448 E8.21442
G1 X137.745 Y132.76 E8.26959
G1 X136.826 Y132.996 E8.32481
G1 X135.891 Y133.154 E8.38001
G1 X134.806 Y133.237 E8.44335
G1 X134.17 Y133.25 E8.48037
G1 X66.062 Y133.249 E12.44461
G1 X65.364 Y133.24 E12.48524
G1 X64.417 Y133.188 E12.54045
G1 X63.478 Y133.056 E12.59564
G1 X62.553 Y132.846 E12.65085
G1 X61.649 Y132.558 E12.70607
G1 X60.773 Y132.195 E12.76127
G1 X59.93 Y131.76 E12.81648
G1 X59.127 Y131.255 E12.87169
G1 X58.369 Y130.685 E12.9269
G1 X57.662 Y130.053 E12.98209
G1 X57.011 Y129.363 E13.03731
G1 X56.42 Y128.621 E13.09252
G1 X55.894 Y127.832 E13.14771
G1 X55.436 Y127.001 E13.20294
G1 X55.05 Y126.135 E13.25813
G1 X54.738 Y125.239 E13.31335
G1 X54.503 Y124.32 E13.36856
G1 X54.346 Y123.385 E13.42375
G1 X54.263 Y122.295 E13.48737
G1 X54.25 Y121.658 E13.52446
G1 X54.251 Y88.522 E15.45315
G1 X54.26 Y87.857 E15.49186
G1 X54.313 Y86.91 E15.54706
G1 X54.445 Y85.971 E15.60226
G1 X54.656 Y85.046 E15.65748
G1 X54.944 Y84.142 E15.7127
G1 X55.308 Y83.266 E15.76792
G1 X55.743 Y82.424 E15.82308
G1 X56.249 Y81.621 E15.87832
G1 X56.82 Y80.864 E15.93351
G1 X57.452 Y80.157 E15.98871
G1 X58.142 Y79.506 E16.04393
G1 X58.885 Y78.916 E16.09915
G0 F9000 X59.366 Y79.187
G1 F1800 X60.149 Y78.691 E16.1531
G1 X60.972 Y78.263 E16.20709
G1 X61.828 Y77.909 E16.26101
G1 X62.712 Y77.629 E16.31498
G1 X63.617 Y77.427 E16.36895
G1 X64.536 Y77.303 E16.42293
G1 X65.208 Y77.263 E16.46211
G1 X65.83 Y77.25 E16.49832
G1 X133.947 Y77.251 E20.46309
G1 X134.645 Y77.261 E20.50372
G1 X135.571 Y77.314 E20.55771
G1 X136.488 Y77.447 E20.61164
G1 X137.391 Y77.659 E20.66563
G1 X138.272 Y77.947 E20.71958
G1 X139.125 Y78.31 E20.77353
G1 X139.944 Y78.746 E20.82754
G1 X140.722 Y79.25 E20.88149
G1 X141.453 Y79.819 E20.93541
G1 X142.133 Y80.45 E20.98941
G1 X142.756 Y81.136 E21.04334
G1 X143.318 Y81.874 E21.09734
G1 X143.814 Y82.657 E21.15129
G1 X144.24 Y83.481 E21.20528
G1 X144.594 Y84.337 E21.25919
G1 X144.873 Y85.222 E21.3132
G1 X145.075 Y86.127 E21.36718
G1 X145.198 Y87.046 E21.42114
G1 X145.237 Y87.708 E21.45974
G1 X145.25 Y88.33 E21.49595
G1 X145.249 Y121.397 E23.42063
G1 X145.24 Y122.124 E23.46294
G1 X145.189 Y123.05 E23.51692
G1 X145.058 Y123.968 E23.5709
G1 X144.848 Y124.871 E23.62486
G1 X144.561 Y125.752 E23.67879
G1 X144.2 Y126.606 E23.73276
G1 X143.766 Y127.426 E23.78676
G1 X143.263 Y128.205 E23.84073
G1 X142.695 Y128.937 E23.89466
G1 X142.066 Y129.618 E23.94862
G1 X141.381 Y130.243 E24.00259
G1 X140.644 Y130.806 E24.05657
G1 X139.862 Y131.303 E24.1105
G1 X139.039 Y131.731 E24.1645
G1 X138.183 Y132.087 E24.21846
G1 X137.3 Y132.368 E24.27239
G1 X136.395 Y132.571 E24.32638
G1 X135.476 Y132.696 E24.38036
G1 X134.792 Y132.737 E24.42024
G1 X134.17 Y132.75 E24.45646
G1 X66.068 Y132.749 E28.42035
G1 X65.37 Y132.74 E28.46098
G1 X64.445 Y132.688 E28.5149
G1 X63.527 Y132.557 E28.56888
G1 X62.624 Y132.347 E28.62284
G1 X61.742 Y132.06 E28.67683
G1 X60.889 Y131.697 E28.73078
G1 X60.07 Y131.263 E28.78473
G1 X59.291 Y130.76 E28.83871
G1 X58.558 Y130.192 E28.89268
G1 X57.878 Y129.562 E28.94664
G1 X57.254 Y128.877 E29.00057
G1 X56.691 Y128.14 E29.05455
G1 X56.194 Y127.357 E29.10853
G1 X55.766 Y126.534 E29.16253
G1 X55.411 Y125.678 E29.21646
G1 X55.131 Y124.794 E29.27044
G1 X54.928 Y123.89 E29.32436
G1 X54.804 Y122.971 E29.37834
G1 X54.763 Y122.281 E29.41857
G1 X54.75 Y121.658 E29.45484
G1 X54.751 Y88.529 E31.38312
G1 X54.76 Y87.864 E31.42183
G1 X54.812 Y86.938 E31.47582
G1 X54.945 Y86.02 E31.52981
G1 X55.155 Y85.117 E31.58377
G1 X55.443 Y84.236 E31.63772
G1 X55.805 Y83.383 E31.69165
G1 X56.24 Y82.564 E31.74563
G1 X56.744 Y81.785 E31.79963
G1 X57.313 Y81.053 E31.8536
G1 X57.943 Y80.373 E31.90755
G1 X58.629 Y79.749 E31.96153
G1 X59.366 Y79.187 E32.01548
G0 F9000 X59.846 Y79.466
G1 F1800 X60.622 Y78.999 E32.06819
G1 X61.436 Y78.603 E32.12088
G1 X62.281 Y78.28 E32.17353
G1 X63.153 Y78.034 E32.22627
G1 X64.042 Y77.865 E32.27894
G1 X65.222 Y77.763 E32.34788
G1 X65.83 Y77.75 E32.38328
G1 X133.94 Y77.751 E36.34764
G1 X134.638 Y77.761 E36.38827
G1 X135.542 Y77.814 E36.44097
G1 X136.437 Y77.946 E36.49363
G1 X137.318 Y78.157 E36.54636
G1 X138.176 Y78.445 E36.59904
G1 X139.006 Y78.808 E36.65177
G1 X139.8 Y79.242 E36.70444
G1 X140.553 Y79.745 E36.75714
G1 X141.259 Y80.312 E36.80985
G1 X141.911 Y80.939 E36.8625
G1 X142.506 Y81.621 E36.91518
G1 X143.039 Y82.353 E36.96788
G1 X143.505 Y83.13 E37.02062
G1 X143.9 Y83.944 E37.07328
G1 X144.222 Y84.79 E37.12597
G1 X144.468 Y85.661 E37.17865
G1 X144.637 Y86.551 E37.23138
G1 X144.737 Y87.722 E37.29978
G1 X144.75 Y88.33 E37.33518
G1 X144.749 Y121.391 E39.2595
G1 X144.74 Y122.118 E39.30182
G1 X144.689 Y123.022 E39.35452
G1 X144.558 Y123.918 E39.40723
G1 X144.349 Y124.798 E39.45987
G1 X144.063 Y125.657 E39.51257
G1 X143.702 Y126.488 E39.56531
G1 X143.269 Y127.283 E39.618
G1 X142.768 Y128.037 E39.67069
G1 X142.202 Y128.744 E39.7234
G1 X141.577 Y129.398 E39.77606
G1 X140.895 Y129.994 E39.82878
G1 X140.164 Y130.528 E39.88147
G1 X139.389 Y130.995 E39.93413
G1 X138.575 Y131.392 E39.98685
G1 X137.73 Y131.716 E40.03952
G1 X136.859 Y131.964 E40.09223
G1 X135.97 Y132.134 E40.14492
G1 X134.778 Y132.237 E40.21455
G1 X134.17 Y132.25 E40.24995
G1 X66.075 Y132.249 E44.21344
G1 X65.377 Y132.24 E44.25407
G1 X64.473 Y132.189 E44.30677
G1 X63.577 Y132.057 E44.35948
G1 X62.697 Y131.848 E44.41213
G1 X61.838 Y131.561 E44.46484
G1 X61.008 Y131.2 E44.51753
G1 X60.213 Y130.767 E44.57022
G1 X59.459 Y130.265 E44.62294
G1 X58.753 Y129.699 E44.67561
G1 X58.099 Y129.073 E44.7283
G1 X57.503 Y128.391 E44.78102
G1 X56.969 Y127.66 E44.83371
G1 X56.502 Y126.884 E44.88643
G1 X56.106 Y126.07 E44.93912
G1 X55.782 Y125.225 E44.99179
G1 X55.535 Y124.354 E45.04449
G1 X55.365 Y123.465 E45.09717
G1 X55.263 Y122.268 E45.16709
G1 X55.25 Y121.658 E45.20261
G1 X55.251 Y88.535 E47.13054
G1 X55.26 Y87.87 E47.16925
G1 X55.312 Y86.966 E47.22195
G1 X55.444 Y86.071 E47.27461
G1 X55.654 Y85.19 E47.32733
G1 X55.941 Y84.332 E47.37999
G1 X56.303 Y83.502 E47.43269
G1 X56.737 Y82.707 E47.48541
G1 X57.239 Y81.954 E47.53809
G1 X57.805 Y81.248 E47.59075
G1 X58.432 Y80.594 E47.64349
G1 X59.114 Y79.999 E47.69617
G1 X59.846 Y79.466 E47.74887
G1 F1500 E41.24887
;MESH:??????????-7??.stl
G0 F9000 X65.914 Y87.335
G0 X65.914 Y88.414
G0 X66.901 Y89.401
;TYPE:WALL-INNER
G1 F1500 E47.74887
G1 F1800 X66.901 Y120.599 E49.20158
G1 X133.1 Y120.6 E52.28408
G1 X133.1 Y89.4 E53.73689
G1 X66.901 Y89.401 E56.81939
G0 F9000 X66.501 Y89.001
G1 F1800 X66.501 Y120.999 E58.30935
G1 X133.5 Y121 E61.42911
G1 X133.5 Y89 E62.91916
G1 X66.501 Y89.001 E66.03891
G0 F9000 X66.101 Y88.601
G1 F1800 X66.101 Y121.399 E67.56613
G1 X133.9 Y121.4 E70.72313
G1 X133.9 Y88.6 E72.25044
G1 X66.101 Y88.601 E75.40744
G0 F9000 X65.701 Y88.201
;TYPE:WALL-OUTER
G1 F1800 X65.701 Y121.799 E76.97191
G1 X134.3 Y121.8 E80.16616
G1 X134.3 Y88.2 E81.73072
G1 X65.701 Y88.201 E84.92498
G1 F1500 E78.42498
G0 F9000 X65.97 Y88.47
G0 X65.92 Y107.543
G0 X71.264 Y108.11
G0 X71.567 Y107.543
;TYPE:WALL-INNER
G1 F1500 E84.92498
G1 F1800 X71.707 Y107.301 E84.93799
G1 X71.88 Y107.103 E84.95024
G1 X72.07 Y106.951 E84.96157
G1 X72.455 Y106.773 E84.98132
G1 X72.844 Y106.718 E84.99961
G1 X73.959 Y106.719 E85.05153
G1 X74.291 Y106.758 E85.0671
G1 X74.648 Y106.897 E85.08494
G1 X74.982 Y107.16 E85.10473
G1 X75.17 Y107.413 E85.11941
G1 X75.338 Y107.866 E85.14191
G1 X75.456 Y109.058 E85.19768
G1 X78.277 Y109.058 E85.32904
G1 X73.816 Y97.009 E85.92731
G1 X73.75 Y96.764 E85.93912
G1 X73.745 Y96.311 E85.96022
G1 X73.8 Y96.083 E85.97114
G1 X74.05 Y95.601 E85.99642
G1 X74.355 Y95.355 E86.01467
G1 X74.588 Y95.23 E86.02698
G1 X74.851 Y95.149 E86.0398
G1 X75.13 Y95.122 E86.05285
G1 X76.945 Y95.122 E86.13736
G1 X77.257 Y95.207 E86.15242
G1 X77.658 Y95.435 E86.1739
G1 X77.937 Y95.74 E86.19315
G1 X78.059 Y95.951 E86.2045
G1 X83.451 Y111.373 E86.96524
G1 X83.529 Y111.669 E86.97949
G1 X83.529 Y112.963 E87.03974
G1 X83.494 Y113.353 E87.05798
G1 X83.257 Y113.793 E87.08125
G1 X82.987 Y114.092 E87.10001
G1 X82.649 Y114.263 E87.11764
G1 X82.3 Y114.363 E87.13455
G1 X72.844 Y114.363 E87.57486
G1 X72.589 Y114.34 E87.58678
G1 X72.23 Y114.241 E87.60412
G1 X71.923 Y114.019 E87.62176
G1 X71.735 Y113.819 E87.63455
G1 X71.581 Y113.569 E87.64822
G1 X71.479 Y113.278 E87.66258
G1 X71.444 Y112.963 E87.67733
G1 X71.444 Y108.119 E87.90289
G1 X71.475 Y107.821 E87.91684
G1 X71.567 Y107.543 E87.93048
G0 F9000 X72.845 Y106.557
G0 X75.425 Y107.574
G0 X75.611 Y108.887
G0 X78.021 Y108.88
G0 X73.949 Y95.7
G0 X74.743 Y95.599
G1 F1800 X74.991 Y95.522 E87.94257
G1 X76.896 Y95.522 E88.03127
G1 X77.273 Y95.654 E88.04987
G1 X77.517 Y95.85 E88.06445
G1 X77.692 Y96.113 E88.07916
G1 X83.129 Y111.665 E88.8463
G1 X83.129 Y113.082 E88.91228
G1 X83.067 Y113.309 E88.92324
G1 X82.934 Y113.556 E88.9363
G1 X82.8 Y113.705 E88.94563
G1 X82.5 Y113.892 E88.9621
G1 X82.252 Y113.963 E88.97411
G1 X72.72 Y113.963 E89.41796
G1 X72.489 Y113.899 E89.42912
G1 X72.186 Y113.717 E89.44558
G1 X71.942 Y113.396 E89.46435
G1 X71.844 Y113.117 E89.47812
G1 X71.844 Y108.119 E89.71085
G1 X71.932 Y107.708 E89.73042
G1 X72.155 Y107.393 E89.74839
G1 X72.43 Y107.208 E89.76383
G1 X72.732 Y107.118 E89.7785
G1 X74.125 Y107.119 E89.84336
G1 X74.452 Y107.246 E89.8597
G1 X74.69 Y107.434 E89.87382
G1 X74.824 Y107.615 E89.88431
G1 X74.944 Y107.938 E89.90035
G1 X75.071 Y109.232 E89.96089
G1 X75.129 Y109.458 E89.97176
G1 X78.851 Y109.458 E90.14507
G1 X74.144 Y96.743 E90.7764
G1 X74.144 Y96.349 E90.79475
G1 X74.243 Y96.058 E90.80906
G1 X74.437 Y95.8 E90.82409
G1 X74.743 Y95.599 E90.84114
G0 F9000 X73.949 Y95.7
G0 X78.021 Y108.88
G0 X75.611 Y108.887
G0 X74.33 Y106.602
G0 X72.016 Y107.291
G0 X71.944 Y107.768
G0 X72.356 Y107.768
G1 F1800 X72.512 Y107.618 E90.85122
G1 X72.729 Y107.518 E90.86234
G1 X74.061 Y107.519 E90.92437
G1 X74.255 Y107.595 E90.93407
G1 X74.478 Y107.816 E90.94869
G1 X74.55 Y108.01 E90.95832
G1 X74.675 Y109.3 E91.01867
G1 X74.746 Y109.582 E91.03221
G1 X74.823 Y109.734 E91.04015
G1 X74.917 Y109.81 E91.04578
G1 X75.131 Y109.858 E91.05599
G1 X79.426 Y109.858 E91.25598
G1 X74.538 Y96.653 E91.91163
G1 X74.538 Y96.418 E91.92258
G1 X74.647 Y96.164 E91.93545
G1 X74.797 Y96.022 E91.94507
G1 X75.053 Y95.922 E91.95786
G1 X76.847 Y95.922 E92.0414
G1 X77.074 Y96.001 E92.05259
G1 X77.22 Y96.119 E92.06133
G1 X77.313 Y96.255 E92.069
G1 X82.729 Y111.734 E92.83262
G1 X82.729 Y113.035 E92.8932
G1 X82.692 Y113.171 E92.89976
G1 X82.531 Y113.408 E92.9131
G1 X82.351 Y113.521 E92.923
G1 X82.204 Y113.563 E92.93012
G1 X72.766 Y113.563 E93.36959
G1 X72.449 Y113.416 E93.38586
G1 X72.302 Y113.223 E93.39716
G1 X72.244 Y113.042 E93.40601
G1 X72.244 Y108.119 E93.63524
G1 X72.257 Y107.991 E93.64123
G1 X72.356 Y107.768 E93.6526
G1 F1500 E87.1526
G0 F9000 X71.944 Y107.768
G0 X72.016 Y107.291
G0 X75.1 Y107.05
G0 X75.611 Y108.887
G0 X78.021 Y108.88
G0 X73.949 Y95.7
G0 X74.991 Y95.622
G1 F1500 E93.6526
G0 F9000 X74.991 Y96.377
;TYPE:WALL-OUTER
G1 F1800 X75.095 Y96.324 E93.65803
G1 X76.811 Y96.325 E93.73793
G1 X76.955 Y96.433 E93.74632
G1 X82.326 Y111.801 E94.50436
G1 X82.328 Y113.015 E94.56089
G1 X82.263 Y113.112 E94.56633
G1 X82.163 Y113.161 E94.57151
G1 X72.807 Y113.16 E95.00717
G1 X72.712 Y113.114 E95.01208
G1 X72.646 Y112.998 E95.01829
G1 X72.644 Y108.119 E95.24548
G1 X72.661 Y108.036 E95.24943
G1 X72.779 Y107.918 E95.2572
G1 X74.007 Y107.924 E95.31438
G1 X74.106 Y107.982 E95.31972
G1 X74.156 Y108.082 E95.32493
G1 X74.28 Y109.368 E95.38509
G1 X74.368 Y109.722 E95.40207
G1 X74.504 Y109.991 E95.41611
G1 X74.739 Y110.182 E95.43021
G1 X75.089 Y110.258 E95.44689
G1 X80 Y110.258 E95.67556
G1 X74.932 Y96.557 E96.35579
G1 X74.991 Y96.377 E96.36461
G1 F1500 E89.86461
G0 F9000 X74.991 Y95.622
G0 X77.082 Y96.09
G0 X82.376 Y111.272
G0 X87.786 Y110.898
G0 X89.254 Y105.796
G0 X91.983 Y105.796
G0 X92.81 Y107.623
;TYPE:WALL-INNER
G1 F1500 E96.36461
G1 F1800 X93.015 Y106.394 E96.42262
G1 X93.2 Y105.897 E96.44732
G1 X93.503 Y105.523 E96.46973
G1 X93.853 Y105.335 E96.48823
G1 X94.249 Y105.226 E96.50736
G1 X95.665 Y105.226 E96.57329
G1 X95.948 Y105.254 E96.58653
G1 X96.27 Y105.362 E96.60235
G1 X96.602 Y105.584 E96.62094
G1 X96.887 Y105.942 E96.64225
G1 X96.983 Y106.151 E96.65296
G1 X97.09 Y106.621 E96.67541
G1 X97.143 Y106.514 E96.68097
G1 X97.432 Y106.348 E96.69649
G1 X97.651 Y106.276 E96.70722
G1 X98.182 Y106.213 E96.73212
G1 X98.178 Y99.137 E97.06161
G1 X97.96 Y99.134 E97.07176
G1 X97.479 Y99.042 E97.09456
G1 X97.189 Y98.891 E97.10979
G1 X97.008 Y98.744 E97.12064
G1 X96.719 Y98.381 E97.14225
G1 X96.58 Y97.92 E97.16467
G1 X96.579 Y96.31 E97.23964
G1 X96.71 Y95.912 E97.25915
G1 X96.924 Y95.585 E97.27735
G1 X97.268 Y95.299 E97.29818
G1 X97.486 Y95.195 E97.30942
G1 X97.81 Y95.106 E97.32507
G1 X103.945 Y95.106 E97.61074
G1 X104.391 Y95.178 E97.63178
G1 X104.727 Y95.344 E97.64923
G1 X104.971 Y95.541 E97.66383
G1 X105.168 Y95.822 E97.67981
G1 X105.298 Y96.142 E97.69589
G1 X105.343 Y96.41 E97.70855
G1 X105.346 Y96.701 E97.7221
G1 X105.787 Y96.281 E97.75046
G1 X106.204 Y95.95 E97.77525
G1 X106.458 Y95.778 E97.78953
G1 X106.874 Y95.539 E97.81187
G1 X107.244 Y95.367 E97.83087
G1 X107.675 Y95.202 E97.85236
G1 X107.986 Y95.109 E97.86748
G1 X108.473 Y94.997 E97.89074
G1 X108.88 Y94.939 E97.90989
G1 X109.247 Y94.905 E97.92705
G1 X109.693 Y94.89 E97.94783
G1 X110.661 Y94.941 E97.99297
G1 X111.559 Y95.11 E98.03551
G1 X112.4 Y95.404 E98.077
G1 X113.171 Y95.822 E98.11784
G1 X113.863 Y96.363 E98.15874
G1 X114.464 Y97.019 E98.20016
G1 X114.962 Y97.768 E98.24205
G1 X115.358 Y98.618 E98.28571
G1 X115.642 Y99.5 E98.32886
G1 X115.854 Y100.521 E98.37741
G1 X115.972 Y101.587 E98.42735
G1 X116.01 Y102.68 E98.47828
G1 X115.999 Y103.337 E98.50888
G1 X115.967 Y103.899 E98.53509
G1 X115.913 Y104.446 E98.56068
G1 X115.837 Y104.973 E98.58547
G1 X115.742 Y105.469 E98.60899
G1 F1463.4 X115.727 Y105.917 E98.63466
G1 F1226.6 X115.618 Y106.294 E98.66148
G1 F1454.5 X115.41 Y106.606 E98.68309
G1 F1800 X115.305 Y106.883 E98.69688
G1 X115.11 Y107.323 E98.71929
G1 X114.889 Y107.738 E98.74119
G1 X114.707 Y108.032 E98.75729
G1 X114.38 Y108.48 E98.78311
G1 X114.085 Y108.819 E98.80404
G1 X113.776 Y109.122 E98.82419
G1 X113.531 Y109.332 E98.83921
