;FLAVOR:Marlin
;TIME:1536
;Filament used: 1.94911m
;Layer height: 0.28
;MINX:-49.719
;MINY:-41.335
;MINZ:0.28
;MAXX:41.781
;MAXY:15.165
;MAXZ:3.08
;Generated with Cura_SteamEngine 5.2.1
M140 S60
M105
M190 S60
M104 S200
M105
M109 S200
M82 ;absolute extrusion mode
M220 S100 ;reset feedrate
M221 S100 ;reset flowrate
G90 ;use absolute coordinates
M82 ;absolute extrusion mode
G28 ;home
G1 Z2 F1500 ;raise z
G92 E0 ;reset extruder

G1 X75 Y5 F5000 ;start position
G1 Z0.28 F1500 ;lower z
G1 E4 F500 ;prime the filament
G1 X180 E10 F500 ;1st line
G1 Y5.4 F5000
G1 X75 E20 F500 ;2nd line
G1 Z2 F1500 ;raise z
G92 E0 ;reset extruder
G92 E0
G92 E0
G1 F1500 E-6.5
;LAYER_COUNT:11
;LAYER:0
M107
G0 F9000 X30.201 Y15.165 Z0.28
;TYPE:SKIRT
G1 F1500 E0
G1 F1800 X-37.907 Y15.164 E3.96424
G1 X-38.605 Y15.155 E4.00487
G1 X-39.552 Y15.103 E4.06008
G1 X-40.491 Y14.971 E4.11527
G1 X-41.416 Y14.761 E4.17048
G1 X-42.32 Y14.473 E4.2257
G1 X-43.196 Y14.11 E4.28089
G1 X-44.039 Y13.675 E4.33611
G1 X-44.842 Y13.17 E4.39132
G1 X-45.6 Y12.6 E4.44652
G1 X-46.307 Y11.968 E4.50172
G1 X-46.958 Y11.278 E4.55693
G1 X-47.549 Y10.536 E4.61215
G1 X-48.075 Y9.747 E4.66734
G1 X-48.533 Y8.916 E4.72257
G1 X-48.919 Y8.05 E4.77776
G1 X-49.231 Y7.154 E4.83298
G1 X-49.466 Y6.235 E4.88819
G1 X-49.623 Y5.3 E4.94338
G1 X-49.706 Y4.21 E5.007
G1 X-49.719 Y3.573 E5.04409
G1 X-49.718 Y-29.563 E6.97278
G1 X-49.709 Y-30.228 E7.01149
G1 X-49.656 Y-31.175 E7.06669
G1 X-49.524 Y-32.114 E7.12188
G1 X-49.313 Y-33.039 E7.17711
G1 X-49.025 Y-33.943 E7.23233
G1 X-48.661 Y-34.819 E7.28754
G1 X-48.226 Y-35.661 E7.34271
G1 X-47.72 Y-36.464 E7.39795
G1 X-47.149 Y-37.221 E7.45314
G1 X-46.517 Y-37.928 E7.50834
G1 X-45.827 Y-38.579 E7.56355
G1 X-45.084 Y-39.169 E7.61878
G1 X-44.295 Y-39.695 E7.67397
G1 X-43.464 Y-40.152 E7.72917
G1 X-42.597 Y-40.538 E7.78441
G1 X-41.701 Y-40.849 E7.83961
G1 X-40.782 Y-41.084 E7.89483
G1 X-39.847 Y-41.24 E7.95
G1 X-38.775 Y-41.322 E8.01258
G1 X-38.139 Y-41.335 E8.0496
G1 X29.985 Y-41.334 E12.01478
G1 X30.683 Y-41.324 E12.05541
G1 X31.63 Y-41.27 E12.11062
G1 X32.569 Y-41.137 E12.16582
G1 X33.494 Y-40.925 E12.22106
G1 X34.397 Y-40.637 E12.27622
G1 X35.273 Y-40.273 E12.33144
G1 X36.115 Y-39.836 E12.38665
G1 X36.917 Y-39.33 E12.44185
G1 X37.674 Y-38.759 E12.49704
G1 X38.38 Y-38.125 E12.55227
G1 X39.031 Y-37.435 E12.60748
G1 X39.62 Y-36.692 E12.66267
G1 X40.145 Y-35.902 E12.71788
G1 X40.602 Y-35.071 E12.77308
G1 X40.987 Y-34.204 E12.8283
G1 X41.298 Y-33.308 E12.8835
G1 X41.532 Y-32.389 E12.9387
G1 X41.687 Y-31.453 E12.99392
G1 X41.768 Y-30.391 E13.05591
G1 X41.781 Y-29.755 E13.09294
G1 X41.78 Y3.318 E15.01796
G1 X41.771 Y4.045 E15.06028
G1 X41.719 Y4.992 E15.11548
G1 X41.588 Y5.932 E15.17073
G1 X41.378 Y6.857 E15.22594
G1 X41.091 Y7.761 E15.28114
G1 X40.729 Y8.637 E15.33631
G1 X40.294 Y9.48 E15.39153
G1 X39.79 Y10.283 E15.44671
G1 X39.22 Y11.041 E15.50191
G1 X38.588 Y11.749 E15.55715
G1 X37.898 Y12.4 E15.61236
G1 X37.157 Y12.991 E15.66753
G1 X36.368 Y13.518 E15.72276
G1 X35.537 Y13.976 E15.77799
G1 X34.671 Y14.363 E15.8332
G1 X33.776 Y14.675 E15.88837
G1 X32.857 Y14.911 E15.94359
G1 X31.922 Y15.069 E15.99878
G1 X30.837 Y15.152 E16.06212
G1 X30.201 Y15.165 E16.09915
G0 F9000 X30.201 Y14.665
G1 F1800 X-37.901 Y14.664 E20.06304
G1 X-38.599 Y14.655 E20.10367
G1 X-39.524 Y14.603 E20.1576
G1 X-40.442 Y14.472 E20.21157
G1 X-41.345 Y14.262 E20.26553
G1 X-42.227 Y13.975 E20.31952
G1 X-43.08 Y13.612 E20.37348
G1 X-43.899 Y13.178 E20.42743
G1 X-44.678 Y12.675 E20.4814
G1 X-45.411 Y12.107 E20.53537
G1 X-46.091 Y11.477 E20.58933
G1 X-46.715 Y10.792 E20.64326
G1 X-47.278 Y10.055 E20.69724
G1 X-47.775 Y9.272 E20.75122
G1 X-48.203 Y8.449 E20.80522
G1 X-48.558 Y7.593 E20.85916
G1 X-48.838 Y6.709 E20.91313
G1 X-49.041 Y5.805 E20.96706
G1 X-49.165 Y4.886 E21.02103
G1 X-49.206 Y4.196 E21.06126
G1 X-49.219 Y3.573 E21.09753
G1 X-49.218 Y-29.556 E23.02582
G1 X-49.209 Y-30.221 E23.06453
G1 X-49.157 Y-31.147 E23.11851
G1 X-49.024 Y-32.065 E23.1725
G1 X-48.814 Y-32.968 E23.22646
G1 X-48.526 Y-33.849 E23.28041
G1 X-48.164 Y-34.702 E23.33435
G1 X-47.729 Y-35.521 E23.38832
G1 X-47.225 Y-36.3 E23.44233
G1 X-46.656 Y-37.032 E23.49629
G1 X-46.026 Y-37.712 E23.55025
G1 X-45.34 Y-38.336 E23.60422
G1 X-44.603 Y-38.898 E23.65817
G1 X-43.82 Y-39.394 E23.71212
G1 X-42.997 Y-39.822 E23.76611
G1 X-42.141 Y-40.176 E23.82003
G1 X-41.257 Y-40.456 E23.874
G1 X-40.352 Y-40.658 E23.92797
G1 X-39.433 Y-40.782 E23.98195
G1 X-38.761 Y-40.822 E24.02113
G1 X-38.139 Y-40.835 E24.05734
G1 X29.978 Y-40.834 E28.02211
G1 X30.676 Y-40.824 E28.06274
G1 X31.602 Y-40.771 E28.11673
G1 X32.519 Y-40.638 E28.17066
G1 X33.422 Y-40.426 E28.22465
G1 X34.303 Y-40.138 E28.2786
G1 X35.156 Y-39.775 E28.33255
G1 X35.975 Y-39.339 E28.38656
G1 X36.753 Y-38.835 E28.44051
G1 X37.484 Y-38.266 E28.49443
G1 X38.164 Y-37.635 E28.54843
G1 X38.787 Y-36.949 E28.60236
G1 X39.349 Y-36.211 E28.65636
G1 X39.845 Y-35.428 E28.71031
G1 X40.271 Y-34.604 E28.7643
G1 X40.625 Y-33.748 E28.81821
G1 X40.904 Y-32.863 E28.87222
G1 X41.106 Y-31.958 E28.9262
G1 X41.229 Y-31.039 E28.98016
G1 X41.268 Y-30.377 E29.01876
G1 X41.281 Y-29.755 E29.05497
G1 X41.28 Y3.312 E30.97965
G1 X41.271 Y4.039 E31.02197
G1 X41.22 Y4.965 E31.07594
G1 X41.089 Y5.883 E31.12992
G1 X40.879 Y6.786 E31.18388
G1 X40.592 Y7.667 E31.23781
G1 X40.231 Y8.521 E31.29178
G1 X39.797 Y9.341 E31.34578
G1 X39.294 Y10.12 E31.39975
G1 X38.726 Y10.852 E31.45368
G1 X38.097 Y11.533 E31.50764
G1 X37.412 Y12.158 E31.56161
G1 X36.675 Y12.721 E31.61559
G1 X35.893 Y13.218 E31.66952
G1 X35.07 Y13.646 E31.72352
G1 X34.214 Y14.002 E31.77748
G1 X33.331 Y14.283 E31.83141
G1 X32.426 Y14.486 E31.8854
G1 X31.507 Y14.611 E31.93938
G1 X30.823 Y14.652 E31.97926
G1 X30.201 Y14.665 E32.01548
G0 F9000 X30.201 Y14.165
G1 F1800 X-37.894 Y14.164 E35.97896
G1 X-38.592 Y14.155 E36.01959
G1 X-39.496 Y14.104 E36.07229
G1 X-40.392 Y13.972 E36.12501
G1 X-41.272 Y13.763 E36.17765
G1 X-42.131 Y13.476 E36.23037
G1 X-42.961 Y13.115 E36.28305
G1 X-43.756 Y12.682 E36.33574
G1 X-44.51 Y12.18 E36.38847
G1 X-45.216 Y11.614 E36.44113
G1 X-45.87 Y10.988 E36.49383
G1 X-46.466 Y10.306 E36.54655
G1 X-47 Y9.575 E36.59924
G1 X-47.467 Y8.799 E36.65195
G1 X-47.863 Y7.985 E36.70464
G1 X-48.187 Y7.14 E36.75732
G1 X-48.434 Y6.269 E36.81001
G1 X-48.604 Y5.38 E36.86269
G1 X-48.706 Y4.183 E36.93262
G1 X-48.719 Y3.573 E36.96813
G1 X-48.718 Y-29.55 E38.89606
G1 X-48.709 Y-30.215 E38.93477
G1 X-48.657 Y-31.119 E38.98748
G1 X-48.525 Y-32.014 E39.04014
G1 X-48.315 Y-32.895 E39.09285
G1 X-48.028 Y-33.753 E39.14551
G1 X-47.666 Y-34.583 E39.19822
G1 X-47.232 Y-35.378 E39.25094
G1 X-46.73 Y-36.131 E39.30361
G1 X-46.164 Y-36.837 E39.35628
G1 X-45.537 Y-37.491 E39.40901
G1 X-44.855 Y-38.086 E39.46169
G1 X-44.123 Y-38.619 E39.5144
G1 X-43.347 Y-39.086 E39.56711
G1 X-42.533 Y-39.482 E39.6198
G1 X-41.688 Y-39.805 E39.67246
G1 X-40.816 Y-40.051 E39.72519
G1 X-39.927 Y-40.22 E39.77786
G1 X-38.747 Y-40.322 E39.8468
G1 X-38.139 Y-40.335 E39.8822
G1 X29.971 Y-40.334 E43.84656
G1 X30.669 Y-40.324 E43.88719
G1 X31.573 Y-40.271 E43.9399
G1 X32.468 Y-40.139 E43.99255
G1 X33.349 Y-39.928 E44.04528
G1 X34.207 Y-39.64 E44.09796
G1 X35.037 Y-39.277 E44.15069
G1 X35.831 Y-38.843 E44.20336
G1 X36.584 Y-38.34 E44.25606
G1 X37.29 Y-37.773 E44.30877
G1 X37.942 Y-37.146 E44.36142
G1 X38.537 Y-36.464 E44.4141
G1 X39.07 Y-35.732 E44.4668
G1 X39.536 Y-34.955 E44.51954
G1 X39.931 Y-34.141 E44.5722
G1 X40.253 Y-33.295 E44.62489
G1 X40.499 Y-32.424 E44.67757
G1 X40.668 Y-31.534 E44.7303
G1 X40.768 Y-30.363 E44.7987
G1 X40.781 Y-29.755 E44.8341
G1 X40.78 Y3.306 E46.75842
G1 X40.771 Y4.033 E46.80074
G1 X40.72 Y4.937 E46.85344
G1 X40.589 Y5.833 E46.90615
G1 X40.38 Y6.713 E46.9588
G1 X40.094 Y7.572 E47.01149
G1 X39.733 Y8.403 E47.06423
G1 X39.3 Y9.198 E47.11692
G1 X38.799 Y9.952 E47.16961
G1 X38.233 Y10.659 E47.22233
G1 X37.608 Y11.313 E47.27498
G1 X36.926 Y11.909 E47.3277
G1 X36.195 Y12.443 E47.38039
G1 X35.42 Y12.91 E47.43305
G1 X34.606 Y13.307 E47.48577
G1 X33.761 Y13.631 E47.53844
G1 X32.89 Y13.879 E47.59115
G1 X32.001 Y14.049 E47.64384
G1 X30.809 Y14.152 E47.71348
G1 X30.201 Y14.165 E47.74887
G1 F1500 E41.24887
;MESH:??????????-7??.stl
G0 F9000 X6.384 Y-11.03
G0 X5.804 Y-12.017
;TYPE:WALL-INNER
G1 F1500 E47.74887
G1 F1335.8 X5.925 Y-12.453 E47.77726
G1 X6.009 Y-12.863 E47.80352
G1 X6.073 Y-13.323 E47.83266
G1 F1278.9 X6.105 Y-13.953 E47.87401
G1 F1198 X6.126 Y-14.675 E47.92454
G1 F1170.7 X6.126 Y-16.102 E48.0267
G1 F1196 X6.108 Y-16.771 E48.0736
G1 F1272.1 X6.08 Y-17.363 E48.11265
G1 F1323.5 X6.011 Y-17.882 E48.14581
G1 X5.906 Y-18.385 E48.17835
G1 X5.811 Y-18.664 E48.19701
G1 X5.713 Y-18.373 E48.21646
G1 X5.609 Y-17.872 E48.24886
G1 X5.54 Y-17.348 E48.28233
G1 F1272.1 X5.52 Y-16.756 E48.32136
G1 F1188.1 X5.505 Y-15.757 E48.39184
G1 F1176.5 X5.512 Y-14.265 E48.49814
G1 F1263.2 X5.537 Y-13.34 E48.55954
G1 F1335.8 X5.603 Y-12.85 E48.59056
G1 X5.687 Y-12.435 E48.61713
G1 X5.804 Y-12.017 E48.64436
G0 F9000 X5.987 Y-19.297
G1 F1800 X5.863 Y-19.343 E48.65052
G1 X5.646 Y-19.302 E48.66081
G1 X5.453 Y-19.071 E48.67482
G1 X5.258 Y-18.505 E48.7027
G1 X5.144 Y-17.959 E48.72867
G1 X5.073 Y-17.432 E48.75343
G1 X5.028 Y-16.831 E48.78149
G1 X4.994 Y-15.757 E48.83153
G1 X4.994 Y-14.982 E48.86762
G1 X5.011 Y-14.242 E48.90208
G1 X5.073 Y-13.263 E48.94776
G1 X5.138 Y-12.782 E48.97036
G1 X5.227 Y-12.339 E48.9914
G1 X5.317 Y-12.015 E49.00706
G1 X5.459 Y-11.668 E49.02452
G1 X5.6 Y-11.471 E49.0358
G1 X5.703 Y-11.413 E49.0413
G1 X5.888 Y-11.414 E49.04992
G1 X6.002 Y-11.474 E49.05592
G1 X6.174 Y-11.712 E49.06959
G1 X6.28 Y-11.979 E49.08297
G1 X6.379 Y-12.328 E49.09986
G1 X6.471 Y-12.776 E49.12116
G1 X6.538 Y-13.259 E49.14386
G1 X6.598 Y-13.913 E49.17444
G1 X6.634 Y-14.668 E49.20964
G1 X6.643 Y-15.369 E49.24228
G1 X6.633 Y-16.125 E49.27749
G1 X6.6 Y-16.811 E49.30947
G1 X6.549 Y-17.425 E49.33816
G1 X6.481 Y-17.933 E49.36202
G1 X6.434 Y-18.191 E49.37423
G1 X6.362 Y-18.509 E49.38942
G1 X6.225 Y-18.909 E49.4091
G1 X6.097 Y-19.171 E49.42268
G1 X5.987 Y-19.297 E49.43047
G0 F9000 X5.526 Y-11.397
G0 X5.315 Y-11.183
G1 F1800 X5.61 Y-11.021 E49.44614
G1 X5.978 Y-11.021 E49.46328
G1 X6.265 Y-11.168 E49.47829
G1 X6.4 Y-11.315 E49.48758
G1 X6.533 Y-11.533 E49.49948
G1 X6.659 Y-11.85 E49.51536
G1 X6.768 Y-12.234 E49.53395
G1 X6.865 Y-12.709 E49.55652
G1 X6.942 Y-13.263 E49.58257
G1 X6.997 Y-13.886 E49.61169
G1 X7.034 Y-14.663 E49.64791
G1 X7.043 Y-15.374 E49.68102
G1 X7.032 Y-16.143 E49.71683
G1 X7.001 Y-16.823 E49.74853
G1 X6.949 Y-17.45 E49.77782
G1 X6.874 Y-18.015 E49.80436
G1 X6.748 Y-18.618 E49.83305
G1 X6.596 Y-19.062 E49.8549
G1 X6.433 Y-19.395 E49.87216
G1 X6.238 Y-19.617 E49.88592
G1 X6.071 Y-19.704 E49.89469
G1 X5.72 Y-19.743 E49.91114
G1 X5.416 Y-19.633 E49.92619
G1 X5.163 Y-19.342 E49.94414
G1 X5.03 Y-19.071 E49.9582
G1 X4.871 Y-18.611 E49.98086
G1 X4.75 Y-18.027 E50.00864
G1 X4.675 Y-17.473 E50.03467
G1 X4.628 Y-16.827 E50.06483
G1 X4.594 Y-15.757 E50.11468
G1 X4.594 Y-14.974 E50.15114
G1 X4.611 Y-14.224 E50.18607
G1 X4.627 Y-13.883 E50.20196
G1 X4.673 Y-13.245 E50.23175
G1 X4.743 Y-12.718 E50.2565
G1 X4.837 Y-12.245 E50.27896
G1 X4.947 Y-11.855 E50.29783
G1 X5.107 Y-11.472 E50.31716
G1 X5.315 Y-11.183 E50.33374
G1 F1500 E43.83374
G0 F9000 X5.526 Y-11.397
G0 X5.966 Y-19.424
G1 F1500 E50.33374
G0 F9000 X6.211 Y-20.082
;TYPE:WALL-OUTER
G1 F1800 X5.955 Y-20.143 E50.34599
G1 X5.674 Y-20.143 E50.35907
G1 X5.414 Y-20.082 E50.37151
G1 X5.186 Y-19.965 E50.38344
G1 X4.993 Y-19.79 E50.39557
G1 X4.819 Y-19.549 E50.40942
G1 X4.66 Y-19.225 E50.42622
G1 X4.485 Y-18.717 E50.45124
G1 X4.355 Y-18.095 E50.48083
G1 X4.277 Y-17.515 E50.50808
G1 X4.229 Y-16.873 E50.53806
G1 X4.194 Y-15.757 E50.59005
G1 X4.194 Y-14.965 E50.62693
G1 X4.211 Y-14.206 E50.66228
G1 X4.228 Y-13.855 E50.67864
G1 X4.275 Y-13.205 E50.70899
G1 X4.347 Y-12.654 E50.73486
G1 X4.447 Y-12.151 E50.75874
G1 X4.569 Y-11.723 E50.77946
G1 X4.755 Y-11.276 E50.80201
G1 X5.029 Y-10.894 E50.8239
G1 X5.284 Y-10.716 E50.83838
G1 X5.516 Y-10.629 E50.84992
G1 X5.791 Y-10.599 E50.8628
G1 X6.069 Y-10.629 E50.87582
G1 X6.31 Y-10.716 E50.88775
G1 X6.527 Y-10.862 E50.89993
G1 X6.721 Y-11.073 E50.91327
G1 X6.892 Y-11.353 E50.92855
G1 X7.039 Y-11.721 E50.947
G1 X7.157 Y-12.139 E50.96723
G1 X7.26 Y-12.641 E50.99109
G1 X7.34 Y-13.218 E51.01821
G1 X7.397 Y-13.859 E51.04818
G1 X7.434 Y-14.631 E51.08417
G1 X7.443 Y-15.38 E51.11905
G1 X7.432 Y-16.161 E51.15542
G1 X7.398 Y-16.876 E51.18875
G1 X7.347 Y-17.493 E51.21758
G1 X7.269 Y-18.078 E51.24506
G1 X7.22 Y-18.341 E51.25752
G1 X7.133 Y-18.728 E51.27599
G1 X6.966 Y-19.215 E51.29996
G1 X6.769 Y-19.619 E51.32089
G1 X6.49 Y-19.937 E51.34059
G1 X6.211 Y-20.082 E51.35523
G0 F9000 X5.859 Y-19.139
G1 F1500 E44.85523
G0 F9000 X4.697 Y-18.662
G0 X3.671 Y-19.014
G0 X2.517 Y-19.449
G0 X1.61 Y-20.008
G0 X0.652 Y-19.462
G1 F1500 E51.35523
G0 F9000 X0.651 Y-19.612
;TYPE:WALL-INNER
G1 F1800 X0.345 Y-19.415 E51.37217
G1 X0.028 Y-19.351 E51.38723
G1 X-.373 Y-19.314 E51.40598
G1 X-.446 Y-18.992 E51.42136
G1 X-.445 Y-18.384 E51.44967
G1 F1578.9 X-.389 Y-17.915 E51.47474
G1 F1445.8 X-.424 Y-16.902 E51.5335
G1 F1528.7 X0.019 Y-16.902 E51.55779
G1 F1545.1 X0.063 Y-17.393 E51.58453
G1 F1460.4 X0.119 Y-17.875 E51.61238
G1 F1578.9 X0.269 Y-18.309 E51.63676
G1 F1800 X0.405 Y-18.799 E51.66044
G1 X0.541 Y-19.184 E51.67945
G1 X0.728 Y-19.629 E51.70193
G1 F1791 X0.79 Y-19.757 E51.70858
G1 X0.651 Y-19.612 E51.71798
G0 F9000 X0.018 Y-18.969
G1 F1551.7 X-0.038 Y-18.969 E51.72101
G1 X-0.067 Y-18.919 E51.72413
G1 X-0.039 Y-18.869 E51.72722
G1 X0.018 Y-18.869 E51.7303
G1 X0.048 Y-18.919 E51.73345
G1 F1500 E45.23345
G0 F9000 X0.862 Y-19.534
G0 X1.45 Y-20.562
G0 X2.228 Y-21.417
G0 X3.158 Y-22.044
G0 X4.203 Y-22.445
G0 X5.356 Y-22.623
G0 X6.627 Y-22.586
G0 X7.441 Y-22.431
G0 X8.2 Y-22.167
G0 X8.893 Y-21.791
G0 X9.513 Y-21.307
G0 X10.049 Y-20.72
G0 X10.503 Y-20.037
G0 X10.866 Y-19.263
G0 X11.14 Y-18.408
G0 X11.332 Y-17.471
G0 X11.444 Y-16.455
G0 X11.441 Y-14.256
G0 X11.23 Y-12.757
G0 X10.83 Y-11.447
G0 X10.245 Y-10.323
G0 X9.468 Y-9.411
G0 X8.519 Y-8.726
G0 X7.421 Y-8.287
G0 X6.185 Y-8.092
G0 X4.971 Y-8.124
G0 X4.198 Y-8.259
G0 X3.474 Y-8.487
G0 X2.804 Y-8.814
G0 X2.197 Y-9.238
G0 X1.658 Y-9.758
G0 X1.203 Y-10.372
G0 X0.839 Y-11.068
G0 X0.646 Y-11.303
G1 F1500 E51.73345
G0 F9000 X0.636 Y-11.156
G1 F1800 X0.428 Y-11.734 E51.76206
G1 X0.342 Y-12.076 E51.77848
G1 F1548.4 X0.146 Y-12.65 E51.81131
G1 F1382 X0.069 Y-13.516 E51.86404
G1 F1409 X-.409 Y-13.516 E51.89247
G1 F1382 X-.382 Y-12.605 E51.94775
G1 F1548.4 X-.446 Y-11.979 E51.98181
G1 F1800 X-.407 Y-11.58 E52.00048
G1 X-.349 Y-11.473 E52.00615
G1 X0.151 Y-11.436 E52.02949
G1 X0.636 Y-11.156 E52.05557
G0 F9000 X-0.029 Y-11.861
G1 F1760.4 X-0.047 Y-11.988 E52.06168
G0 F9000 X0.805 Y-11.222
G0 X0.804 Y-8.391
G0 X-6.818 Y-8.391
G0 X-7.56 Y-12.288
G0 X-10.275 Y-12.289
G0 X-11.159 Y-10.462
G1 F1800 X-10.954 Y-11.691 E52.1197
G1 X-10.769 Y-12.188 E52.14439
G1 X-10.467 Y-12.56 E52.1667
G1 X-10.116 Y-12.75 E52.18529
G1 X-9.72 Y-12.859 E52.20441
G1 X-8.304 Y-12.859 E52.27035
G1 X-8.021 Y-12.831 E52.28359
G1 X-7.699 Y-12.723 E52.2994
G1 X-7.367 Y-12.501 E52.318
G1 X-7.082 Y-12.143 E52.33931
G1 X-6.986 Y-11.934 E52.35002
G1 X-6.879 Y-11.464 E52.37246
G1 X-6.826 Y-11.571 E52.37802
G1 X-6.537 Y-11.737 E52.39354
G1 X-6.318 Y-11.809 E52.40427
G1 X-5.787 Y-11.872 E52.42917
G1 X-5.791 Y-18.948 E52.75866
G1 X-6.009 Y-18.951 E52.76881
G1 X-6.49 Y-19.043 E52.79162
G1 X-6.78 Y-19.194 E52.80684
G1 X-6.961 Y-19.341 E52.8177
G1 X-7.25 Y-19.704 E52.83931
G1 X-7.389 Y-20.165 E52.86173
G1 X-7.39 Y-21.775 E52.93669
G1 X-7.259 Y-22.173 E52.9562
G1 X-7.045 Y-22.5 E52.9744
G1 X-6.701 Y-22.786 E52.99523
G1 X-6.483 Y-22.89 E53.00648
G1 X-6.159 Y-22.979 E53.02213
G1 X-0.024 Y-22.979 E53.3078
G1 X0.422 Y-22.907 E53.32883
G1 X0.758 Y-22.741 E53.34628
G1 X1.002 Y-22.544 E53.36089
G1 X1.199 Y-22.263 E53.37687
G1 X1.329 Y-21.943 E53.39295
G1 X1.374 Y-21.675 E53.4056
G1 X1.377 Y-21.384 E53.41915
G1 X1.818 Y-21.804 E53.44751
G1 X2.235 Y-22.135 E53.4723
G1 X2.489 Y-22.307 E53.48659
G1 X2.905 Y-22.546 E53.50893
G1 X3.275 Y-22.718 E53.52793
